X: 226
T: Grogan in the Corner (reel)
C: BB
N: 
L: 1/8
M: 4/4
R: reel
Q: 1/4 = 180
K: D
zD | "D"FAdc "Bm"d3B | "D"AGFA "G"GFED |\ 
"Em"Beed e3f | "G"g2 ed "A" cAGE|
"D" FAdc "Em" Bege | "D" fagf "Em7" edcB |\
"D" Adcd "G"BAGB | "A7" AGEC "D" D2 :|
cd | "A7"eAAA gAAA | "A7"eAAA gAAA |\
"D"fdcd "Bm"BFBd | "F#m"cfec "Bm"B2 cd |
"A7"eAAA gAAA | "A7"eAAA gAAA |\ 
"D"fdfa "Em7" gedB | "A"Acec "D" d2 :|
